X: 47
T:First Day of Spring
M:4/4
L:1/8
C:Geoff Wysham
N:I wrote this on an unseasonably beautiful first day of Spring in 1995.
Z:Geoff Wysham
K:D
DA AG A2 Bc-|cA GB AD D2|DA AG A2 Bc-|cA GB A4|
DA AG A2 Bc-|cA GB AD D2|=F2 =F2 =FD =CA, G,A, =CE D4:|
|:ag fa (3gag fe|dc de fe fg|ag fa gf ed|cB A^G A4|
ag fa (3gag fe|dc de =fe =fg|a2 a2 ag fe|dB AF D4:|
<end>
<start>
